icons/lines/python.svg

<svg xmlns="http://www.w3.org/2000/svg" width="24" height="24" viewBox="0 0 24 24" fill="none" stroke="currentColor" stroke-width="2" stroke-linecap="round" stroke-linejoin="round" >
  <path d="M7.59961 7.60001V3.90001C7.59961 3.10001 8.19961 2.40001 8.99961 2.20001C10.9996 1.90001 12.9996 1.90001 14.9996 2.20001C15.7996 2.30001 16.3996 3.00001 16.3996 3.90001V9.80001C16.3996 11 15.3996 12 14.1996 12H9.79961C8.59961 12 7.59961 13 7.59961 14.2V20.1C7.59961 20.9 8.19961 21.6 8.99961 21.8C10.9996 22.1 12.9996 22.1 14.9996 21.8C15.7996 21.7 16.3996 21 16.3996 20.1V16.4"/>
  <path d="M16.4 7.60001H20.1C20.9 7.60001 21.6 8.20001 21.8 9.00001C22.1 11 22.1 13 21.8 15C21.7 15.8 21 16.4 20.1 16.4H12"/>
  <path d="M11.9996 7.60001H3.89961C3.09961 7.60001 2.39961 8.20001 2.19961 9.00001C1.89961 11 1.89961 13 2.19961 15C2.29961 15.8 2.99961 16.4 3.89961 16.4H7.59961"/>
  <path d="M10 4.85001V4.85001"/>
  <path d="M14 19.15V19.15"/>
  </svg>

<svg xmlns="http://www.w3.org/2000/svg" width="24" height="24" viewBox="0 0 24 24" fill="none" stroke="currentColor" stroke-width="2" stroke-linecap="round" stroke-linejoin="round">
  <path d="M10 4.85h.01" />
  <path d="M12 7.6H3.9c-.8 0-1.5.6-1.7 1.4a20.1 20.1 0 0 0 0 6c.1.8.8 1.4 1.7 1.4h3.7" />
  <path d="M14 19.15h.01" />
  <path d="M16.4 7.6h3.7c.8 0 1.5.6 1.7 1.4a20.1 20.1 0 0 1 0 6c-.1.8-.8 1.4-1.7 1.4H12" />
  <path d="M7.6 7.6V3.9c0-.8.6-1.5 1.4-1.7a20.1 20.1 0 0 1 6 0c.8.1 1.4.8 1.4 1.7v5.9a2.22 2.22 0 0 1-2.2 2.2H9.8a2.22 2.22 0 0 0-2.2 2.2v5.9c0 .8.6 1.5 1.4 1.7a20.1 20.1 0 0 0 6 0c.8-.1 1.4-.8 1.4-1.7v-3.7" />
</svg>
